svgs/thin/book-circle-arrow-up.svg

<svg xmlns="http://www.w3.org/2000/svg" viewBox="0 0 640 512"><!--! Font Awesome Pro 6.3.0 by @fontawesome - https://fontawesome.com License - https://fontawesome.com/license (Commercial License) Copyright 2023 Fonticons, Inc. --><path d="M360 495.1h-304c-23.38 0-42.13-20.14-39.8-43.99c2.023-20.78 20.7-36.01 41.59-36.01L312 416C316.4 416 320 412.4 320 408s-3.582-7.998-8-8l-256-.0059c-15.68 0-29.82 6.516-40 16.93V64c0-26.51 21.49-48 48-48h352c8.836 0 16 7.162 16 16v152C432 188.4 435.6 192 440 192S448 188.4 448 184V32c0-17.67-14.33-32-32-32H64C28.66 0 0 28.65 0 64v391.1c0 30.93 25.07 56 56 56L360 512c4.418 0 8-3.582 8-8S364.4 495.1 360 495.1zM496 224C416.5 224 352 288.5 352 367.1C352 447.5 416.5 512 496 512s144-64.46 144-144C640 288.5 575.5 224 496 224zM496 496c-70.58 0-128-57.42-128-128C368 297.4 425.4 240 496 240s128 57.42 128 127.1C624 438.6 566.6 496 496 496zM501.7 290.3c-3.125-3.125-8.188-3.125-11.31 0l-64 64c-3.125 3.125-3.125 8.188 0 11.31s8.188 3.125 11.31 0L488 315.3v124.7c0 4.406 3.578 8.003 8 8.003s8-3.596 8-8.003V315.3l50.34 50.34c3.125 3.125 8.188 3.125 11.31 0C567.2 364.1 568 362.1 568 360s-.7813-4.094-2.344-5.656L501.7 290.3z"/></svg>

<svg xmlns="http://www.w3.org/2000/svg" viewBox="0 0 640 512"><!-- Font Awesome Pro 6.0.0-alpha2 by @fontawesome - https://fontawesome.com License - https://fontawesome.com/license (Commercial License) --><path d="M360 495.994H56C32.625 495.994 13.875 475.85 16.195 452.004C18.219 431.221 36.898 415.99 57.781 415.992L312 416C316.418 416.002 320 412.42 320 408.002S316.418 400.004 312 400.002L56 399.996C40.324 399.996 26.176 406.512 16 416.93V64C16 37.49 37.492 16 64 16H416C424.836 16 432 23.162 432 32V184.002C432 188.418 435.582 192 440 192S448 188.418 448 184.002V32C448 14.326 433.672 0 416 0H64C28.656 0 0 28.654 0 64V455.992C0 486.92 25.07 511.994 56 511.994L360 512C364.418 512 368 508.418 368 504V503.992C368 499.574 364.418 495.994 360 495.994ZM496 224C416.461 224 352 288.463 352 367.998C352 447.537 416.461 512 496 512S640 447.537 640 367.998C640 288.463 575.539 224 496 224ZM496 496C425.422 496 368 438.578 368 367.998C368 297.42 425.422 240 496 240S624 297.42 624 367.998C624 438.578 566.578 496 496 496ZM501.656 290.344C498.531 287.219 493.469 287.219 490.344 290.344L426.344 354.344C423.219 357.469 423.219 362.531 426.344 365.656S434.531 368.781 437.656 365.656L488 315.312V439.996C488 444.402 491.578 447.996 496 447.996S504 444.402 504 439.996V315.312L554.344 365.656C557.469 368.781 562.531 368.781 565.656 365.656C567.219 364.094 568 362.062 568 360S567.219 355.906 565.656 354.344L501.656 290.344Z"/></svg>
